X:1
T:Night of Nights
T:Night of Nights
T:Ira Bishop Wilson
T:Lizzie Douglas Foulks DeArmond, 1907
T:Public Domain Courtesy of the Cyber Hymnal™
T:Public Domain Courtesy of the Cyber Hymnal™
C:Ira Bishop Wilson
Z:Public Domain
Z:Courtesy of the Cyber Hymnal™
%%score ( 1 2 ) ( 3 4 )
L:1/8
Q:1/4=95
M:9/8
K:Ab
V:1 treble 
V:2 treble 
V:3 bass 
V:4 bass 
V:1
 E2 =D | F4 EA d2 c | c3 B3 =E2 F | c4 BF [Ge]2 [Fd] | [Ec]6 E2 =D | F4 EA d2 c | c3 B3 B2 B | %7
w: 1.~Night of|nights! when the bells of|Hea- ven Sweet- ly|rang thro’ the mid- night|air; When the|beau- ti- ful white- robed|an- gels Sang for|
w: 2.~Float- ing|down in a sea of|glo- ry, Tell- ing|un- to the shep- herds|true: “Lo! this|day in a low- ly|man- ger Christ the|
w: 3.~Night of|nights! still the strains ex-|ult- ant Thrill our|souls with their notes sub-|lime; Still to|those who with joy re-|ceive Him, Je- sus|
 [=DB]4 [DF][CA] [B,G]2 [A,F] | [G,E]3- [G,E]2 z ||[M:4/4]"^Refrain" E>E | %10
w: joy in the skies so|fair. *||
w: Sav- ior is born to|you.” *|Night of|
w: comes at the Christ- mas|time. *||
 d4- [Ed]>[EG] [EA]>[EB] | [Ac]2 c4 [Ec]>[Fd] | [DB]4- [DB]>[DB] [Geg]>[Fdf] | [Ece]6 [Ec]>[Ec] | %14
w: ||||
w: nights thro’ ho- ly por-|* * tals Comes|a- * gain the chant|sub- lime, “Wel-|
w: ||||
 [=Ec]2 [EG]>[EG] [Ec]2 [GB]2 | [GB]4 [FA]2 [FA]>[FA] | [Ac]3 [AB] [Ac]2 [A=d]2 | %17
w: |||
w: come now for the roy-|al Stran- ger; Greet|your Lord this Christ-|
w: |||
 e4- !fermata![Be]E F>C | z2 z2 !fermata!E2 E2 x2 | c6 z2 B2 | A6 (z B [CA]2) |] %21
w: ||||
w: mas time!” O night of|* nights!|* O|night * *|
w: ||||
V:2
 x3 | x9 | x9 | x9 | x9 | x9 | x9 | x9 | x6 ||[M:4/4] x2 | G2 F2 x4 | x2 G2 F2 x2 | x8 | x8 | x8 | %15
 x8 | x8 | G2 A2 x4 | F4 [G,D]4 x2 | ([DF]4 [DG]4) x2 | C2 D2 x6 |] %21
V:3
 z3 | (A,,[E,A,C][E,A,C] [E,A,C]) z2 [F,=A,E] z2 | (B,,[F,B,D][F,B,D]) [F,B,D] z2 [F,B,D] z2 | %3
w: |~ * * * ~|~ * * ~ ~|
 (E,,[E,G,D][E,G,D] [E,G,D]) z2 [E,G,D] z2 | (A,,[E,A,C][E,A,C] [E,A,C]3) z3 | %5
w: ~ * * * ~|~ * * *|
 (A,, [E,A,C][E,A,C] [E,A,C]) z2 [F,=A,E] z2 | (B,,[G,B,E][G,B,E]) [G,B,E] z2 [G,B,E] z2 | %7
w: ~ * * * ~|~ * * ~ ~|
 (B,,[F,B,][F,B,] [F,B,]) z2 B,, z2 | ([E,,E,]B,,G,, E,,2) z ||[M:4/4] z2 | %10
w: ~ * * * ~|~ * * *||
 B,,2 [E,G,B,]2 [E,G,B,]>DC>B, | [A,,A,]2 [E,A,C]2 [E,A,C]2 [E,A,C]2 | %12
w: Night of nights! * * *||
 E,,2 [E,G,B,]2 [E,G,B,]2 [E,G,B,]2 | A,,2 [E,A,C]2 [E,A,C]2 A,>A, | %14
w: ||
 [C,G,]2 [C,C]>[C,C] [C,G,]2 [=E,C]2 | [F,C]4 [F,C]2 [F,C]>[F,C] | %16
w: ||
 [B,,B,]3 [B,,B,] [B,,B,]2 [B,,B,]2 | (B,2 C2 [E,D]) x3 | (z2 z2 !fermata!z2) x4 | [E,,E,-]8 x2 | %20
w: ||||
 (E,2 _F,2 E,2) x4 |] %21
w: |
V:4
 x3 | x9 | x9 | x9 | x9 | x9 | x9 | x9 | x6 ||[M:4/4] x2 | x8 | x8 | x8 | x6 A,>A, | x8 | x8 | x8 | %17
 E,4- E,F,>C, x | (F,4 B,,4 E,2) | x10 | A,,6 x4 |] %21

